X: 18
T: The Meeting of the Waters
R: jig
M: 6/8
L: 1/8
Z: 2010 John Chambers <jc:trillian.mit.edu>
B: Anonymous manuscript tune book (1800-1840)
F: http://www.asaplive.com/archive/browse_by_collection.asp
N: The asaplive.com web site is complex, and links to its files don't usually work.
N: The 7-count bar 9 is clear in the MS.
K: G
d>c | BAG AGE | DEG A2A/B/ | cBA ABG |dBG A2A/B/ |
cBA ABG | dBG HA2G/A/ | BAG GED | DEG Hc2B/A/ | BAG G<ED2 | DEG G2 |]


%%sep 5 1 500

